media/icons/search_filled.svg

<?xml version="1.0" encoding="UTF-8"?>
<!-- Generated by Pixelmator Pro 3.3.2 -->
<svg width="512" height="512" viewBox="0 0 512 512" xmlns="http://www.w3.org/2000/svg">
    <path id="Path" fill="#000000" stroke="none" d="M 488.304993 412.266998 L 417.102997 341.09201 C 406.980988 330.970001 393.483002 325.395996 379.096008 325.395996 C 376.950989 325.395996 374.829987 325.535004 372.731995 325.778992 L 346.433014 299.498993 C 367.295013 269.464996 379.544006 233.018982 379.544006 193.759003 C 379.544006 91.330994 296.213989 8 193.785995 8 C 91.344002 8 8 91.330994 8 193.76001 C 8 296.20401 91.344002 379.548004 193.785995 379.548004 C 233.037994 379.548004 269.47699 367.298004 299.505005 346.43399 L 325.778992 372.688995 C 325.532013 374.79599 325.391998 376.928009 325.391998 379.084015 C 325.391998 393.480011 330.968994 406.975006 341.095001 417.084015 L 412.291992 488.282013 C 422.770996 498.760986 436.531006 504 450.29599 503.998993 C 464.061005 503.997986 477.830994 498.756989 488.312988 488.274994 C 509.230011 467.321991 509.230011 433.229004 488.304993 412.266998 Z M 193.785995 310.394012 C 129.475006 310.394012 77.153 258.071991 77.153 193.76001 C 77.153 129.463013 129.473999 77.154999 193.785995 77.154999 C 258.082001 77.154999 310.390015 129.463989 310.390015 193.76001 C 310.390991 258.071991 258.082001 310.394012 193.785995 310.394012 Z"/>
</svg>

<svg xmlns="http://www.w3.org/2000/svg" width="512" height="512"><path d="m488.305 412.267-71.202-71.175c-10.122-10.122-23.62-15.696-38.007-15.696a55.04 55.04 0 0 0-6.364.383l-26.299-26.28c20.862-30.034 33.111-66.48 33.111-105.74C379.544 91.331 296.214 8 193.786 8 91.344 8 8 91.331 8 193.76c0 102.444 83.344 185.788 185.786 185.788 39.252 0 75.691-12.25 105.719-33.114l26.274 26.255a54.886 54.886 0 0 0-.387 6.395c0 14.396 5.577 27.891 15.703 38l71.197 71.198c10.479 10.479 24.239 15.718 38.004 15.717 13.765-.001 27.535-5.242 38.017-15.724 20.917-20.953 20.917-55.046-.008-76.008ZM193.786 310.394c-64.311 0-116.633-52.322-116.633-116.634 0-64.297 52.321-116.605 116.633-116.605 64.296 0 116.604 52.309 116.604 116.605.001 64.312-52.308 116.634-116.604 116.634Z"/></svg>
